icons/invoice-no-activity.svg

<svg
  xmlns="http://www.w3.org/2000/svg"
  viewBox="0 0 500 500"
  width="500"
  height="500"
  fill="#ffffff"
>
  <path d="M212.5 141.6a53.7 53.7 0 0 1-24.9-6.6l-4.5 17.5c5.7 3.3 15.5 6 25.5 6.4v14.3h14.7v-15.3c17.2-3 26.7-14.4 26.7-27.7s-7.2-21.8-25.1-28.1c-12.7-4.8-17.9-7.9-17.9-12.9s3.1-8.4 12.8-8.4 17.7 3.5 21.6 5.1l4.4-16.9c-5-2.4-11.7-4.5-21.8-4.9V50.9h-14.6v14.2C193.3 68.2 184 78.6 184 91.8s11 22 27 27.4c11.1 3.8 15.9 7.4 15.9 13.1s-5.9 9.3-14.4 9.3z" />
  <path d="M292.9 237.3H140.2a10.2 10.2 0 0 0 0 20.4h152.7a10.2 10.2 0 1 0 0-20.4z" />
  <path d="M130 208a10.2 10.2 0 0 0 10.2 10.2h152.7a10.3 10.3 0 0 0 0-20.5H140.2A10.3 10.3 0 0 0 130 208z" />
  <path d="M378.5 276.8a109.1 109.1 0 1 0 109.1 109.1 109.1 109.1 0 0 0-109.1-109.1zM364.3 446h-21.4V325.8h21.4zm48.9 0h-20.6V325.8h20.6z" />
  <path d="M302.7 284.6a10.4 10.4 0 0 0-9.8-7.4H140.2a10.3 10.3 0 0 0 0 20.5h146.9a122.9 122.9 0 0 1 15.6-13.1z" />
  <path d="M209.4 327.2a10.2 10.2 0 0 0 10.2 10.3H260a126.4 126.4 0 0 1 11.1-20.5h-51.5a10.2 10.2 0 0 0-10.2 10.2z" />
  <path d="M250.2 378.7H140.1l.5 10.7c.4 7.6-.8 29.4-10.5 39.5-3.5 3.6-7.7 5.3-13.3 5.3s-10.2-1.7-13.8-5.5c-9.8-10.2-11.2-31.9-10.9-39.8V47.1a53.2 53.2 0 0 0-5.3-21.6h235.8c3.4.7 19 5 19 23.6v217a127.7 127.7 0 0 1 20.5-3.8V49.1c0-30.3-24.2-42-37-44H54.7C27 5 15.1 29.2 12.6 42l-.2 50.9h59.3v295.6c-.2 3.6-1 36 16.5 54.3a38.7 38.7 0 0 0 28.6 11.9h153.5a124.3 124.3 0 0 1-20.3-68.2c0-2.6.1-5.2.2-7.8z" />
</svg>

<svg xmlns="http://www.w3.org/2000/svg" viewBox="0 0 500 500">
  <g id="invoice-no-activity">
    <g id="invoiceNoActivityIcon">
      <path id="dollarSign" d="M212.5,141.6a53.7,53.7,0,0,1-24.9-6.6l-4.5,17.5c5.7,3.3,15.5,6,25.5,6.4v14.3h14.7V157.9c17.2-3,26.7-14.4,26.7-27.7s-7.2-21.8-25.1-28.1C212.2,97.3,207,94.2,207,89.2s3.1-8.4,12.8-8.4,17.7,3.5,21.6,5.1L245.8,69c-5-2.4-11.7-4.5-21.8-4.9V50.9H209.4V65.1C193.3,68.2,184,78.6,184,91.8s11,22,27,27.4c11.1,3.8,15.9,7.4,15.9,13.1S221,141.6,212.5,141.6Z"/>
      <path id="line4" d="M292.9,237.3H140.2a10.2,10.2,0,0,0,0,20.4H292.9a10.2,10.2,0,1,0,0-20.4Z"/>
      <path id="line3" d="M130,208a10.2,10.2,0,0,0,10.2,10.2H292.9a10.3,10.3,0,0,0,0-20.5H140.2A10.3,10.3,0,0,0,130,208Z"/>
      <path id="pause" d="M378.5,276.8A109.1,109.1,0,1,0,487.6,385.9,109.1,109.1,0,0,0,378.5,276.8ZM364.3,446H342.9V325.8h21.4Zm48.9,0H392.6V325.8h20.6Z"/>
      <path id="line2" d="M302.7,284.6a10.4,10.4,0,0,0-9.8-7.4H140.2a10.3,10.3,0,0,0,0,20.5H287.1A122.9,122.9,0,0,1,302.7,284.6Z"/>
      <path id="line1" d="M209.4,327.2a10.2,10.2,0,0,0,10.2,10.3H260A126.4,126.4,0,0,1,271.1,317H219.6A10.2,10.2,0,0,0,209.4,327.2Z"/>
      <path id="outline" d="M250.2,378.7H140.1l.5,10.7c.4,7.6-.8,29.4-10.5,39.5-3.5,3.6-7.7,5.3-13.3,5.3s-10.2-1.7-13.8-5.5c-9.8-10.2-11.2-31.9-10.9-39.8V47.1a53.2,53.2,0,0,0-5.3-21.6H322.6c3.4.7,19,5,19,23.6v217a127.7,127.7,0,0,1,20.5-3.8V49.1c0-30.3-24.2-42-37-44H54.7C27,5,15.1,29.2,12.6,42l-.2,50.9H71.7V388.5c-.2,3.6-1,36,16.5,54.3a38.7,38.7,0,0,0,28.6,11.9H270.3A124.3,124.3,0,0,1,250,386.5C250,383.9,250.1,381.3,250.2,378.7Z"/>
    </g>
  </g>
</svg>
